icons/maven.svg

<svg width="16" height="16" viewBox="0 0 16 16" fill="none" xmlns="http://www.w3.org/2000/svg">
<path fill-rule="evenodd" clip-rule="evenodd" d="M12.0339 1C11.944 1.71784 11.4626 2.08568 10.7007 2.66792C9.06292 3.91947 6.1288 6.16164 3 15C3.26765 14.8601 3.49077 14.7771 3.68223 14.7302C4.06446 13.6901 4.77907 12.4349 6.03112 11.4797C6.54663 11.0864 8.10124 10.9623 9.19282 11.3648C9.47424 11.0586 9.74317 10.7437 9.99854 10.4225C9.31885 10.0881 8.58227 9.92088 7.32017 9.92115C7.32017 9.4846 9.03117 9.3779 10.6359 9.56838C10.9467 9.12406 11.2312 8.67261 11.4869 8.22038C10.595 8.07933 9.51782 8.07387 8.49566 8.08659C8.04389 7.62701 10.183 7.17336 11.9985 7.23351C12.228 6.74664 12.4216 6.26428 12.5757 5.79446C11.5629 5.54116 10.4265 5.53842 9.31254 5.91616C10.1567 5.33844 11.3292 4.85372 12.7889 5.05254C12.8905 4.63742 12.9577 4.2364 12.988 3.85561C12.1981 3.86967 11.3535 4.00626 10.4064 4.24714C11.1904 3.71538 12.0876 3.33497 13 3.1456C12.9524 2.23134 12.6452 1.48027 12.0339 1ZM7.50256 8.10101C7.66097 8.09906 7.82307 8.09653 7.98777 8.09397C8.15128 8.09142 8.31785 8.08883 8.48542 8.08672L7.50409 8.0985L7.50256 8.10101Z" fill="url(#paint0_radial_1112_809)"/>
<path d="M8.58842 3.61169C8.08835 3.92552 6.4966 5.62677 4.13013 9.92115C3.29099 7.61427 4.73401 5.65702 8.58842 3.61169Z" fill="url(#paint1_radial_1112_809)"/>
<defs>
<radialGradient id="paint0_radial_1112_809" cx="0" cy="0" r="1" gradientUnits="userSpaceOnUse" gradientTransform="translate(12.4707 2.86632) rotate(132.962) scale(12.7042 9.22125)">
<stop stop-color="#F7A668"/>
<stop offset="1" stop-color="#8F2C99"/>
</radialGradient>
<radialGradient id="paint1_radial_1112_809" cx="0" cy="0" r="1" gradientUnits="userSpaceOnUse" gradientTransform="translate(12.4707 2.86632) rotate(132.962) scale(12.7042 9.22125)">
<stop stop-color="#F7A668"/>
<stop offset="1" stop-color="#8F2C99"/>
</radialGradient>
</defs>
</svg>

<svg xmlns="http://www.w3.org/2000/svg" width="16" height="16" fill="none"><path fill="url(#a)" fill-rule="evenodd" d="M12.034 1c-.09.718-.571 1.086-1.333 1.668C9.063 3.919 6.129 6.162 3 15c.268-.14.49-.223.682-.27.382-1.04 1.097-2.295 2.35-3.25.515-.394 2.07-.518 3.16-.115.282-.306.551-.621.807-.943-.68-.334-1.417-.501-2.679-.5 0-.437 1.711-.544 3.316-.354.31-.444.595-.895.85-1.348-.891-.14-1.968-.146-2.99-.133-.452-.46 1.687-.914 3.502-.853.23-.487.424-.97.578-1.44a5.783 5.783 0 0 0-3.263.122c.844-.578 2.016-1.062 3.476-.863.101-.416.169-.817.199-1.197-.79.014-1.634.15-2.582.391A7.313 7.313 0 0 1 13 3.146c-.048-.915-.355-1.666-.966-2.146ZM7.503 8.101l.485-.007.497-.007-.98.011-.002.003Z" clip-rule="evenodd"/><path fill="url(#b)" d="M8.588 3.612c-.5.314-2.091 2.015-4.458 6.31-.839-2.308.604-4.265 4.458-6.31Z"/><defs><radialGradient id="a" cx="0" cy="0" r="1" gradientTransform="matrix(-8.658 9.297 -6.7482 -6.2844 12.47 2.866)" gradientUnits="userSpaceOnUse"><stop stop-color="#F7A668"/><stop offset="1" stop-color="#8F2C99"/></radialGradient><radialGradient id="b" cx="0" cy="0" r="1" gradientTransform="matrix(-8.658 9.297 -6.7482 -6.2844 12.47 2.866)" gradientUnits="userSpaceOnUse"><stop stop-color="#F7A668"/><stop offset="1" stop-color="#8F2C99"/></radialGradient></defs></svg>
